X: 176
T: Zaspo Yanko
B: steve song book
B: kameruka choir
M:4/4
Q: 1/4=100
K:Dm
V:1 
"Dm"d2def2fd|"C"e2d2"Dm"d2d2|"Dm"f2fgagg2|"C"gez2"Dm"d4|
"Dm"f2fga2ag|"Dm"a2aggfd2|"Dm"f2fgagg2|"C"gez2"Dm"d4||
W: Zaspo Janko pod jablanom
W: Mile moje drage
W: Lepe moje crne oi
W: Pogledajte na me
W: 
W: Pod jablanom zlatnom granom
W: Mile moje drage
W: Lepe moje crne oi
W: Pogledajte na me
W: 
W: Ja otrgo zlatnu granu
W: Mile moje drage
W: Lepe moje crne oi11
W: Pogledajte na me
% abcbook-tune_id 629fffe4e1da6ff0be00e24e


% abcbook-boost 0
% abcbook-tablature 
% abcbook-transpose 
% abcbook-lastupdated 1654691223589
% abcbook-soundfonts 
% abcbook-repeats 1


